assets/svg/label.svg

<?xml version="1.0" encoding="UTF-8"?>
<svg width="1000px" height="1000px" viewBox="0 0 1000 1000" version="1.1" xmlns="http://www.w3.org/2000/svg" xmlns:xlink="http://www.w3.org/1999/xlink">
    <!-- Generator: sketchtool 52.4 (67378) - http://www.bohemiancoding.com/sketch -->
    <title>label</title>
    <desc>Created with sketchtool.</desc>
    <g id="新版图标" stroke="none" stroke-width="1" fill="none" fill-rule="evenodd">
        <g id="label" fill="#323233" fill-rule="nonzero">
            <g id="直角-标签管理-面">
                <path d="M167.666667,55.5555556 L832.333333,55.5555556 C832.885618,55.5555556 833.333333,56.0032708 833.333333,56.5555556 L833.333333,944.444444 L500,777.777778 L166.666667,944.444444 L166.666667,56.5555556 C166.666667,56.0032708 167.114382,55.5555556 167.666667,55.5555556 Z M333.333333,277.777778 L333.333333,333.333333 L666.666667,333.333333 L666.666667,277.777778 L333.333333,277.777778 Z M333.333333,444.444444 L333.333333,500 L666.666667,500 L666.666667,444.444444 L333.333333,444.444444 Z" id="Combined-Shape"></path>
            </g>
        </g>
    </g>
</svg>

<svg width="1000" height="1000" xmlns="http://www.w3.org/2000/svg"><path d="M167.667 55.556h664.666a1 1 0 0 1 1 1v887.888L500 777.778 166.667 944.444V56.556a1 1 0 0 1 1-1zm165.666 222.222v55.555h333.334v-55.555H333.333zm0 166.666V500h333.334v-55.556H333.333z" fill="#323233" fill-rule="nonzero"/></svg>
